X: 185
T:Lady Louisa Cornwallis' Strathspey
B:William Marshall's Scottish Airs, Melodies, Strathspeys, Reels &c (1822)
C:William Marshall
L:1/8
M:C
O:Scotland
R:Strathspey
Z:Clark Bernst + Richard Robinson
%%Page:24 - 2
F:http://richardrobinson.tunebook.org.uk/tune/4028
%%TBL:{"version":1,"type":"tune","id":"4028"}
K:Eb
%%staves {1 2}
V:1
F | \
[G,E]2 (A/G/)F/E/ BE ~G2 | (CF)FG (A/G/)F/E/ (!fermata!.D.B,) | [G,E]2 (GE) BEGE | A,cBD [G,E]2 [G,E] :|
B | \
(e/d/)c/B/ (G>e) Be ~g2 | (cf)fg afdB | (e/d/)c/B/ (Ge) BeGE | A,cBD [G,E]2 [G,(E]B) |
(e/d/)c/B/ (Ge) Be ~g2 | (cf)fg afdB | {d}e>g (3fed (3edc (3BAG | (3ABc BD [G,E]2 [G,E]  |]
V:2 middle=d clef=bass
L:1/4
z/ | EEEE | AFAB | eEGE | AB[Ee][Ee]/ :| \
z/ | [ee'] [ee']ee | afab | eeeG | AB[Ee][Ee]/z/ | [ee'][ee']ee | afab | eBeG | ABEE/ |]

